X: 37341
T: Sláinte Ag An Doras
R: reel
M: 4/4
K: Dmajor
F2 Ad fdAa|g2 Bd gfed|c2 Ac eAce|d2 Ad fdAG|
(3FFF Ad fdAa|(3gag Bd gf (3edB|(3cdc Ac eA (3cBA|d2 ec d2||
fd (3ddd AF (3FFF|GBDG BDGd|cEAc eAce|dfAd fgfe|
fdcd AF (3AGF|G2 DG BDGd|c2 Ac eAce|d2 c2 d2||

